X:1
T:Funeral March
T:Frederic Chopin
%%score ( 1 2 )
L:1/8
Q:1/4=48
M:4/4
K:C
V:1 treble-8 nm="Guitar"
V:2 treble-8 
V:1
"^Lento" !2!A2 !2!A>A A4 | A2 A>A A4 | A2 A>A A2 !1!c>B | [AB]>A A>A A4 | %4
 !3!!1![Ac]2 !2!!1![Ac]>[Ac] [Ac]2 e>!4!d | !4!d>!1!c !1!c>c !1!c4 | %6
"^II" !4!a!2!g !1!f>e e2 !1!c2 |"^II" ag f>e e2 c2 | A2 A>A A2 c>B | [AB]>A A>A A4 | ag f>e e2 c2 | %11
 ag f>e e2 c2 | A2 A>A A2 c>B | [AB]>A A>A A2 B2 | !2!!1![EGc]2 !4!F>G !2!A>[GB] !1!cc | %15
 !3!!2!!4![GBe]2 B>!1!A !1!!3![Ad]>G G>!2!F | !1!E2 E>!2!^F !1!^G>!2!A B>!2!c | %17
 !1!!3!!2![^DAc]2 !4!^F2 !2!!1![E^GB]2 E>!4!F | !3![GBg]2 !4![Bg]>G !1!!4![cg]2 !1!c!2!E | %19
 !1!!2![^Gce]2 !1![GBe]2 A4 | A2 A>A A2 c>B | [AB]>A A>A A4 |] %22
V:2
 !1![A,E]2 !4!!3![CF]2 [A,E]2 [CF]2 | [A,E]2 [CF]2 [A,E]2 [CF]2 | [A,E]2 [CF]2 [A,E]2 !4!!3![CF]2 | %3
 [A,E]2 [CF]2 [A,E]2 [CF]2 | !2![A,E]2 !3!!4![CF]2 [A,E]2 !2!!3![CF]2 | %5
 !2!!3![A,EA]2 !3!!4!!2![CFA]2 !2!!3![A,EA]2 !3!!4!!2![CFA]2 | %6
 [A,EA]2 !3!!4!!2![CFA]2 !1!!2![A,EA]2 !3!!4!!2![CFA]2 | [A,EA]2 [CFA]2 [A,EA]2 [CFA]2 | %8
 [A,E]2 [CF]2 [A,E]2 [CF]2 | [A,E]2 [CF]2 [A,E]2 [CF]2 | [A,EA]2 [CFA]2 [A,EA]2 [CFA]2 | %11
 [A,EA]2 [CFA]2 [A,EA]2 [CFA]2 | [A,E]2 [CF]2 [A,E]2 [CF]2 | [A,E]2 [CF]2 [A,E]2 [G,FG]2 | %14
 C7/2 C/- C4 | !1!!III!G,2 D>!2!C !2!C>!1!B, !1!B,>!3!!1![^G,B,] | !3!!4![A,D]2 A,2 !3!C2 !1!E2 | %17
 E,8 | z2 !3!G,2 !3!C4 | !3!E2 E,>E F2 EC | [A,E]2 [CF]2 [A,E]2 [CF]2 | [A,E]2 [CF]2 [A,E]4 |] %22

